build/svg/cmd/ca/sc_underlinedouble.svg

<?xml version="1.0" encoding="UTF-8" standalone="no"?>
<svg
   xmlns:dc="http://purl.org/dc/elements/1.1/"
   xmlns:cc="http://creativecommons.org/ns#"
   xmlns:rdf="http://www.w3.org/1999/02/22-rdf-syntax-ns#"
   xmlns:svg="http://www.w3.org/2000/svg"
   xmlns="http://www.w3.org/2000/svg"
   xmlns:sodipodi="http://sodipodi.sourceforge.net/DTD/sodipodi-0.dtd"
   xmlns:inkscape="http://www.inkscape.org/namespaces/inkscape"
   viewBox="0 0 16 16"
   version="1.1"
   id="svg4"
   sodipodi:docname="sc_underlinedouble.svg"
   inkscape:version="0.92.5 (2060ec1f9f, 2020-04-08)"
   inkscape:export-filename="/home/jupiter007/Libreoffice yaru theme fullcolor/build/cmd/ca/sc_underlinedouble.png"
   inkscape:export-xdpi="96"
   inkscape:export-ydpi="96">
  <metadata
     id="metadata10">
    <rdf:RDF>
      <cc:Work
         rdf:about="">
        <dc:format>image/svg+xml</dc:format>
        <dc:type
           rdf:resource="http://purl.org/dc/dcmitype/StillImage" />
      </cc:Work>
    </rdf:RDF>
  </metadata>
  <defs
     id="defs8" />
  <sodipodi:namedview
     pagecolor="#ffffff"
     bordercolor="#666666"
     borderopacity="1"
     objecttolerance="10"
     gridtolerance="10"
     guidetolerance="10"
     inkscape:pageopacity="0"
     inkscape:pageshadow="2"
     inkscape:window-width="1920"
     inkscape:window-height="1011"
     id="namedview6"
     showgrid="true"
     inkscape:zoom="29.5"
     inkscape:cx="8.4140631"
     inkscape:cy="6.721601"
     inkscape:window-x="1920"
     inkscape:window-y="32"
     inkscape:window-maximized="1"
     inkscape:current-layer="svg4">
    <inkscape:grid
       type="xygrid"
       id="grid829" />
  </sodipodi:namedview>
  <path
     d="m 11.671388,9.5625961 q 0,0.7194789 -0.297107,1.2906129 -0.288618,0.563716 -0.831898,0.956835 -0.5432802,0.393117 -1.324246,0.600801 -0.7809658,0.200267 -1.757173,0.200267 -0.9422523,0 -1.7656618,-0.133511 Q 4.8803813,12.351508 4.328612,12.099317 v -1.320282 q 0.2886178,0.118678 0.6536345,0.237354 0.3735053,0.11126 0.7809658,0.200268 0.4074604,0.08901 0.8403871,0.148346 0.4329266,0.05193 0.8573646,0.05193 1.3582014,0 2.003347,-0.445039 0.653634,-0.445039 0.653634,-1.2757779 0,-0.400536 -0.1273309,-0.6972272 Q 9.8717715,8.7021875 9.5576874,8.4574153 9.2520921,8.2052269 8.7342777,7.9752902 8.2164635,7.737936 7.4270089,7.4634953 6.6715094,7.2038892 6.1112514,6.8997793 5.559482,6.588252 5.1944654,6.2025516 4.8379375,5.8168512 4.6596736,5.3273083 4.4898984,4.8377654 4.4898984,4.2147109 q 0,-0.6527238 0.2716404,-1.1645187 Q 5.033179,2.5383974 5.525527,2.1897836 6.017875,1.8337523 6.6969757,1.6483195 7.3845651,1.4628866 8.2079749,1.4628866 q 1.0101622,0 1.8165941,0.1705983 0.806432,0.1631809 1.4346,0.422787 L 10.890422,3.2133732 Q 10.338653,2.998271 9.6340862,2.8425074 8.938008,2.6793264 8.1909972,2.6793264 q -1.0356286,0 -1.6043754,0.422787 -0.5687467,0.4153697 -0.5687467,1.1274321 0,0.422787 0.1273314,0.7343143 0.1273314,0.3041099 0.424438,0.5562987 0.2971063,0.2447714 0.7809656,0.4672909 0.492348,0.2151022 1.2054038,0.4598736 0.7724771,0.2670234 1.3497125,0.5488815 0.5857246,0.281858 0.9762076,0.6378891 0.390483,0.3560312 0.585724,0.8233217 0.20373,0.4672915 0.20373,1.1051808 z"
     id="path834"
     style="opacity:0.6;fill:#000000;fill-opacity:1;stroke:#000000;stroke-width:3;stroke-linejoin:round;stroke-miterlimit:4;stroke-dasharray:none;stroke-opacity:1"
     inkscape:connector-curvature="0" />
  <path
     inkscape:connector-curvature="0"
     style="fill:#ffffff;fill-opacity:1;stroke:#ffffff;stroke-width:1;stroke-linejoin:round;stroke-miterlimit:4;stroke-dasharray:none;stroke-opacity:1"
     id="path13"
     d="m 11.671388,9.5625961 q 0,0.7194789 -0.297107,1.2906129 -0.288618,0.563716 -0.831898,0.956835 -0.5432802,0.393117 -1.324246,0.600801 -0.7809658,0.200267 -1.757173,0.200267 -0.9422523,0 -1.7656618,-0.133511 Q 4.8803813,12.351508 4.328612,12.099317 v -1.320282 q 0.2886178,0.118678 0.6536345,0.237354 0.3735053,0.11126 0.7809658,0.200268 0.4074604,0.08901 0.8403871,0.148346 0.4329266,0.05193 0.8573646,0.05193 1.3582014,0 2.003347,-0.445039 0.653634,-0.445039 0.653634,-1.2757779 0,-0.400536 -0.1273309,-0.6972272 Q 9.8717715,8.7021875 9.5576874,8.4574153 9.2520921,8.2052269 8.7342777,7.9752902 8.2164635,7.737936 7.4270089,7.4634953 6.6715094,7.2038892 6.1112514,6.8997793 5.559482,6.588252 5.1944654,6.2025516 4.8379375,5.8168512 4.6596736,5.3273083 4.4898984,4.8377654 4.4898984,4.2147109 q 0,-0.6527238 0.2716404,-1.1645187 Q 5.033179,2.5383974 5.525527,2.1897836 6.017875,1.8337523 6.6969757,1.6483195 7.3845651,1.4628866 8.2079749,1.4628866 q 1.0101622,0 1.8165941,0.1705983 0.806432,0.1631809 1.4346,0.422787 L 10.890422,3.2133732 Q 10.338653,2.998271 9.6340862,2.8425074 8.938008,2.6793264 8.1909972,2.6793264 q -1.0356286,0 -1.6043754,0.422787 -0.5687467,0.4153697 -0.5687467,1.1274321 0,0.422787 0.1273314,0.7343143 0.1273314,0.3041099 0.424438,0.5562987 0.2971063,0.2447714 0.7809656,0.4672909 0.492348,0.2151022 1.2054038,0.4598736 0.7724771,0.2670234 1.3497125,0.5488815 0.5857246,0.281858 0.9762076,0.6378891 0.390483,0.3560312 0.585724,0.8233217 0.20373,0.4672915 0.20373,1.1051808 z" />
  <path
     style="opacity:0.6;fill:#000000;fill-opacity:1;stroke:#000000;stroke-width:2;stroke-linejoin:round;stroke-miterlimit:4;stroke-dasharray:none;stroke-opacity:1"
     d="M 2 12 L 2 13 L 14 13 L 14 12 L 2 12 z M 2 14.037109 L 2 15.037109 L 14 15.037109 L 14 14.037109 L 2 14.037109 z "
     id="rect832" />
  <rect
     style="opacity:1;fill:#ffffff;fill-opacity:1;stroke:none;stroke-width:1;stroke-linejoin:round;stroke-miterlimit:4;stroke-dasharray:none;stroke-opacity:1"
     id="rect830"
     width="12"
     height="1"
     x="2"
     y="14.037113" />
  <rect
     y="12"
     x="2"
     height="1"
     width="12"
     id="rect833"
     style="opacity:1;fill:#ffffff;fill-opacity:1;stroke:none;stroke-width:1;stroke-linejoin:round;stroke-miterlimit:4;stroke-dasharray:none;stroke-opacity:1" />
</svg>

<svg xmlns="http://www.w3.org/2000/svg" viewBox="0 0 16 16"><path d="M11.671 9.563q0 .72-.297 1.29-.288.564-.832.957-.543.393-1.324.6-.78.201-1.757.201-.942 0-1.766-.133-.815-.126-1.366-.379v-1.32q.288.119.653.237.374.112.781.2.408.09.84.149.434.052.858.052 1.358 0 2.003-.445.654-.445.654-1.276 0-.4-.127-.697-.12-.297-.433-.542-.306-.252-.824-.482-.518-.237-1.307-.512-.755-.26-1.316-.563-.552-.312-.917-.697-.356-.386-.534-.876-.17-.49-.17-1.112 0-.653.272-1.165.271-.512.764-.86.492-.356 1.171-.542.688-.185 1.511-.185 1.01 0 1.817.17.806.164 1.434.423l-.569 1.157q-.551-.215-1.256-.37-.696-.164-1.443-.164-1.036 0-1.604.423-.57.415-.57 1.128 0 .422.128.734.128.304.425.556.297.245.78.467.493.216 1.206.46.772.267 1.35.55.585.281.976.637.39.356.586.823.203.468.203 1.106z" opacity=".6" stroke="#000" stroke-width="3" stroke-linejoin="round"/><path d="M11.671 9.563q0 .72-.297 1.29-.288.564-.832.957-.543.393-1.324.6-.78.201-1.757.201-.942 0-1.766-.133-.815-.126-1.366-.379v-1.32q.288.119.653.237.374.112.781.2.408.09.84.149.434.052.858.052 1.358 0 2.003-.445.654-.445.654-1.276 0-.4-.127-.697-.12-.297-.433-.542-.306-.252-.824-.482-.518-.237-1.307-.512-.755-.26-1.316-.563-.552-.312-.917-.697-.356-.386-.534-.876-.17-.49-.17-1.112 0-.653.272-1.165.271-.512.764-.86.492-.356 1.171-.542.688-.185 1.511-.185 1.01 0 1.817.17.806.164 1.434.423l-.569 1.157q-.551-.215-1.256-.37-.696-.164-1.443-.164-1.036 0-1.604.423-.57.415-.57 1.128 0 .422.128.734.128.304.425.556.297.245.78.467.493.216 1.206.46.772.267 1.35.55.585.281.976.637.39.356.586.823.203.468.203 1.106z" fill="#fff" stroke="#fff" stroke-linejoin="round"/><path d="M2 12v1h12v-1H2zm0 2.037v1h12v-1H2z" opacity=".6" stroke="#000" stroke-width="2" stroke-linejoin="round"/><path fill="#fff" d="M2 14.037h12v1H2zM2 12h12v1H2z"/></svg>
